assets/spraw/zhp_harc_sim_2022/pasje_i_specjalnosci/RPGowiec.svg

<svg xmlns="http://www.w3.org/2000/svg" viewBox="0 0 90.709 90.709"><circle transform="matrix(.9239 -.3827 .3827 .9239 -13.9041 20.8088)" cx="45.354" cy="45.355" r="43.52" fill="#194093"/><path d="M45.354 2.835c23.483 0 42.52 19.037 42.52 42.52s-19.037 42.52-42.52 42.52-42.52-19.037-42.52-42.52 19.037-42.52 42.52-42.52m0-2C20.806.835.834 20.806.834 45.355s19.971 44.52 44.52 44.52 44.52-19.971 44.52-44.52S69.903.835 45.354.835h0z" fill="#252e78"/><g fill="#f8c409"><path d="M45.354 77.146L17.537 61.743h55.634z"/><path d="M18.106 29.951l27.248-16.388-27.817 48.18z"/><path d="M72.602 29.951l.569 31.792-27.817-48.18z"/></g><path d="M45.354 13.563l-27.817 48.18h55.634l-27.817-48.18zm7.497 38.774c-2.568 0-5.765-2.774-7.496-4.489-1.731 1.715-4.927 4.489-7.497 4.489-3.669 0-6.654-2.985-6.654-6.654s2.985-6.653 6.654-6.653c2.57 0 5.765 2.773 7.497 4.488 1.732-1.715 4.928-4.488 7.496-4.488 3.669 0 6.654 2.984 6.654 6.653s-2.985 6.654-6.654 6.654zm-18.647-6.655a3.66 3.66 0 0 0 3.654 3.654c1.233 0 3.658-1.925 5.416-3.654-1.758-1.729-4.183-3.653-5.416-3.653a3.66 3.66 0 0 0-3.654 3.653zm18.647-3.653c-1.232 0-3.657 1.925-5.416 3.653 1.759 1.729 4.184 3.654 5.416 3.654a3.66 3.66 0 0 0 3.654-3.654 3.66 3.66 0 0 0-3.654-3.653z" fill="#fff"/></svg>

<?xml version="1.0" encoding="iso-8859-1"?>
<!-- Generator: Adobe Illustrator 22.1.0, SVG Export Plug-In . SVG Version: 6.00 Build 0)  -->
<svg version="1.1" xmlns="http://www.w3.org/2000/svg" xmlns:xlink="http://www.w3.org/1999/xlink" x="0px" y="0px"
	 viewBox="0 0 90.709 90.709" style="enable-background:new 0 0 90.709 90.709;" xml:space="preserve">
<g id="ratownik-1">
	<g>
		<g>
			
				<ellipse transform="matrix(0.9239 -0.3827 0.3827 0.9239 -13.9041 20.8088)" style="fill:#194093;" cx="45.354" cy="45.355" rx="43.52" ry="43.52"/>
			<g>
				<path style="fill:#252E78;" d="M45.354,2.835c23.483,0,42.52,19.037,42.52,42.52s-19.037,42.52-42.52,42.52
					s-42.52-19.037-42.52-42.52S21.871,2.835,45.354,2.835 M45.354,0.835c-24.548,0-44.52,19.971-44.52,44.52
					s19.971,44.52,44.52,44.52s44.52-19.971,44.52-44.52S69.903,0.835,45.354,0.835L45.354,0.835z"/>
			</g>
		</g>
	</g>
</g>
<g id="Warstwa_4">
	<g>
		<polygon style="fill:#F8C409;" points="45.354,77.146 17.537,61.743 73.171,61.743 		"/>
		<polygon style="fill:#F8C409;" points="18.106,29.951 45.354,13.563 17.537,61.743 		"/>
		<polygon style="fill:#F8C409;" points="72.602,29.951 73.171,61.743 45.354,13.563 		"/>
		<g>
			<path style="fill:#FFFFFF;" d="M45.354,13.563l-27.817,48.18h55.634L45.354,13.563z M52.851,52.337
				c-2.568,0-5.765-2.774-7.496-4.489c-1.731,1.715-4.927,4.489-7.497,4.489c-3.669,0-6.654-2.985-6.654-6.654
				s2.985-6.653,6.654-6.653c2.57,0,5.765,2.773,7.497,4.488c1.732-1.715,4.928-4.488,7.496-4.488c3.669,0,6.654,2.984,6.654,6.653
				S56.52,52.337,52.851,52.337z"/>
			<path style="fill:#FFFFFF;" d="M34.204,45.682c0,2.015,1.639,3.654,3.654,3.654c1.233,0,3.658-1.925,5.416-3.654
				c-1.758-1.729-4.183-3.653-5.416-3.653C35.843,42.029,34.204,43.668,34.204,45.682z"/>
			<path style="fill:#FFFFFF;" d="M52.851,42.029c-1.232,0-3.657,1.925-5.416,3.653c1.759,1.729,4.184,3.654,5.416,3.654
				c2.015,0,3.654-1.64,3.654-3.654S54.865,42.029,52.851,42.029z"/>
		</g>
	</g>
</g>
</svg>
